X:506
T:Vals # 506
T: efter Melker Andersson
M:3/4
L:1/8
K: G
Q: 160
G2 GB dg| b2 bb b2| F2 FA df| a2 aa a2| G2 B2 d2| ga gf g2| ed Bc AF| G4 z2 :|
|: dc Bc dc| Bced B2| GB dg fe| ed dc B2| GB dB c2| Ac ed B2|
GB dg fe ed dc B2| GB dB cA| G4 z2 :|

